X: 4352
T: Blair Drummond
%R: reel
B: Niel Gow & Sons "Complete Repository" v.4 p.35 #2
Z: 2021 John Chambers <jc:trillian.mit.edu>
M: C|
L: 1/8
K: A
% - - - - - - - - - -
% Voice 1 formatted for compactness and proofreading.
V: 1 staves=2
|:\
A/A/A Tc2 Aaec | A/A/A Tc2 B=gBG | A/A/A Tc2 Aaef | =gbeg dgBG :| a2ec acec | a2ef =gdBG |
a2ec acef | =gbeg dgBG | a2ec acec | a2ef | =gdBG | a2ec acef | =gbeg dgBG |:
eA-AB cAca | cA-A=c B=gB=G | cA-AB caef | =gbeg dgBG :| {g}a2ec acec | {c}a2ef =gdBG |
{g}a2ec acef | =gbef gdBG | {g}a2ec acec | {c}a2ef =gdBG | {g}a2ec acef | =gbef gdBG |]
% - - - - - - - - - -
% Voice 2 preserves the book's staff layout.
V: 2 clef=bass middle=d
|:\
[e'2c'2a2][e'2c'2a2] [e'2c'2a2][e'2c'2a2] | [e'2c'2a2][e'2c'2a2] [d'2b2=g2][d'2b2g2] |\
[e'2c'2a2][e'2c'2a2] [e'2c'2a2][e'2c'2a2] | [d'2b2][e'2=c'2] [d'2b2][b2=g2] :|\
[e'2c'2a2][e'2c'2a2] [e'2c'2a2][e'2c'2a2] | [e'2c'2a2][e'2c'2a2] [d'2b2=g2][d'2b2g2] |
[e'2c'2a2][e'2c'2a2] [e'2c'2a2][e'2c'2a2] | [d'2b2][e'2=c'2] [d'2b2][b2=g2] |\
[e'2c'2a2][e'2c'2a2] [e'2c'2a2][e'2c'2a2] | [e'2c'2a2][e'2c'2a2] [d'2b2=g2][d'2b2g2] |\
[e'2c'2a2][e'2c'2a2] [e'2c'2a2][e'2c'2a2] | [d'2b2][e'2=c'2] [d'2b2][b2=g2] |:
[e'2c'2a2][e'2c'2a2] [e'2c'2a2][e'2c'2a2] | [e'2c'2a2][e'2c'2a2] [d'2b2=g2][d'2b2g2] |\
[e'2c'2a2][e'2c'2a2] [e'2c'2a2][e'2c'2a2] | [d'2b2][e'2=c'2] [d'2b2][b2=g2] :|\
[e2c2A2][e2c2A2] [e2c2A2][e2c2A2] | [e2c2A2][e2c2A2] [d2B2=G2][d2B2=G2] |
[e2c2A2][e2c2A2] [e2c2A2][e2c2A2] | [d2B2][e2=c2] [d2B2][B2=G2] |\
[e2c2A2][e2c2A2] [e2c2A2][e2c2A2] | [e2c2A2][e2c2A2] [d2B2=G2][d2B2=G2] |\
[e2c2A2][e2c2A2] [e2c2A2][e2c2A2] | [d2B2][e2=c2] [d2B2][B2=G2] |]


